img/icons/glad_sign.svg

<svg width="10" height="35" viewBox="0 0 10 35" fill="none" xmlns="http://www.w3.org/2000/svg">
<path d="M4.99972 34.1667C6.97162 34.1667 8.57016 32.637 8.57016 30.75C8.57016 28.863 6.97162 27.3333 4.99972 27.3333C3.02782 27.3333 1.42928 28.863 1.42928 30.75C1.42928 32.637 3.02782 34.1667 4.99972 34.1667Z" fill="#347D98"/>
<path d="M2.90686 21.0951C3.08479 22.0683 3.96785 22.7778 4.99972 22.7778H5.00031C6.03218 22.7778 6.91464 22.0683 7.09257 21.0951C7.68229 17.8714 8.99498 10.6936 9.92507 5.60794C10.1797 4.21618 9.77811 2.78806 8.82839 1.70607C7.87866 0.624641 6.47789 0 5.00149 0C5.00031 0 4.99972 0 4.99853 0C3.52213 0 2.12136 0.624641 1.17164 1.70607C0.22192 2.78806 -0.179791 4.21618 0.0749546 5.60794C1.00497 10.6936 2.31774 17.8714 2.90686 21.0951Z" fill="#347D98"/>
</svg>

<svg width="10" height="35" fill="none" xmlns="http://www.w3.org/2000/svg"><path d="M5 34.167c1.972 0 3.57-1.53 3.57-3.417 0-1.887-1.598-3.417-3.57-3.417-1.972 0-3.57 1.53-3.57 3.417 0 1.887 1.598 3.417 3.57 3.417ZM2.907 21.095c.178.973 1.06 1.683 2.093 1.683 1.032 0 1.915-.71 2.093-1.683L9.925 5.608a4.637 4.637 0 0 0-1.097-3.902C7.878.625 6.478 0 5.001 0H5C3.522 0 2.12.625 1.172 1.706A4.637 4.637 0 0 0 .075 5.608l2.832 15.487Z" fill="#347D98"/></svg>
